images/vector-three.svg

<svg width="293" height="15" viewBox="0 0 293 15" fill="none" xmlns="http://www.w3.org/2000/svg">
<path d="M285.099 1.23264C280.303 4.29896 278.645 7.04695 268.37 8.54568C255.723 10.392 243.135 5.98673 236.902 2.37471C234.752 1.12805 229.536 0.888328 227.528 2.37471C218.724 8.88999 199.227 7.29901 190.908 1.01111C188.862 -0.53569 181.945 -0.259588 181.096 1.51004C176.421 11.2573 155.431 12.2889 141.373 5.22405C142.908 3.3219 134.904 2.02715 132.722 3.88903C120.921 13.9605 97.8831 12.8353 84.5116 3.84746C82.1909 2.28766 76.9919 2.83467 75.4926 4.30611C64.6255 14.9759 47.6995 9.90019 38.2013 2.55597C36.3515 1.1248 31.0756 1.62047 29.9604 2.97498C24.7697 9.28302 16.2182 10.4608 1.8116 12.0927C-0.901436 12.4007 -0.482377 14.2327 2.50113 14.078C19.0081 13.2218 28.0237 12.0791 34.7704 7.29576C48.6311 15.7177 67.9813 17.438 80.9654 8.57622C97.8013 16.7767 124.846 17.7115 138.246 7.95515C153.131 15.8334 178.092 15.4455 188.088 6.8605C200.983 12.7794 219.753 13.611 232.738 6.98719C252.064 14.5477 291.587 16.2401 292.996 2.06678C293.172 0.37641 287.221 -0.124463 285.099 1.23264Z" fill="#00B2A0"/>
</svg>

<svg width="293" height="15" fill="none" xmlns="http://www.w3.org/2000/svg"><path d="M285.099 1.233c-4.796 3.066-6.454 5.814-16.729 7.313-12.647 1.846-25.235-2.56-31.468-6.171-2.15-1.247-7.366-1.487-9.374 0-8.804 6.515-28.301 4.924-36.62-1.364-2.046-1.547-8.963-1.27-9.812.499-4.675 9.747-25.665 10.779-39.723 3.714 1.535-1.902-6.469-3.197-8.651-1.335-11.801 10.072-34.839 8.946-48.21-.042-2.321-1.56-7.52-1.012-9.02.46C64.626 14.975 47.7 9.9 38.203 2.555c-1.85-1.431-7.126-.936-8.242.419-5.19 6.308-13.742 7.486-28.148 9.118-2.713.308-2.294 2.14.69 1.985 16.506-.856 25.522-1.999 32.268-6.782 13.861 8.422 33.211 10.142 46.195 1.28 16.836 8.2 43.881 9.136 57.281-.62 14.885 7.877 39.846 7.49 49.842-1.096 12.895 5.92 31.665 6.751 44.65.127 19.326 7.56 58.849 9.253 60.258-4.92.176-1.69-5.775-2.191-7.897-.834z" fill="#00B2A0"/></svg>
